X:1
T:Title
%%score { 1 | 2 }
L:1/8
M:3/4
K:Bb
V:1 treble nm="Grand Piano"
V:2 bass 
V:1
 z2 z[Q:1/4=100] [DF] [B,D][CE] | [DF]3 B A[Ec] | [DB]3 [Fd] [Fc][FB] | [EB]4 [EG]2 | %4
[M:2/4] [DF]4 |[M:1/4] [DF]2 |[M:3/4] A_A =A3 B | c=B c3 [Fd] | [Fc]3 [=EG] [EA][EB] |[M:2/4] A4 | %10
[M:1/4] F2 |[M:3/4] [Fd][Fd] [Fd]3 [Fc] | [GB][EG] [GB]3 [FB] | cc c3 d |[M:5/8] [DB][DG] [DF]3 | %15
[M:1/8] [DF] |[M:3/4] GG B3 G | [DF][DB] [Fd]3 [Fd] |[M:7/8] ccc BA3/2c3/2 |[M:3/8] [DB]3 |] %20
V:2
 z2 z [B,,B,] [B,,F,][B,,F,] | [B,,B,]3 [D,F,B,] [F,C][F,,F,] | [B,,F,]3 [B,,B,] [C,A,][D,_A,] | %3
 [E,G,]4 [E,B,]2 |[M:2/4] [B,,B,]4 |[M:1/4] [B,,B,]2 |[M:3/4] [F,CF][F,=B,F] [F,CF]3 [F,G,F] | %7
 [F,A,F][F,_A,F] [F,=A,F]3 [B,,B,] | [C,A,]3 [C,C] [C,C][C,C] |[M:2/4] [F,CE]4 |[M:1/4] [F,A,]2 | %11
[M:3/4] [B,,B,][B,,B,] [B,,B,]3 [D,B,] | [E,B,][E,B,] [E,B,]3 [D,B,] | %13
 [F,A,F][F,A,F] [F,A,F]3 [F,A,F] |[M:5/8] [B,,B,][B,,B,] [B,,B,]3 |[M:1/8] [B,,B,] | %16
[M:3/4] [E,B,E][E,B,E] [E,G,E]3 [E,B,E] | [B,,B,][B,,B,] [B,,B,]3 [B,,B,] | %18
[M:7/8] [F,A,E][F,A,E][F,A,E] [F,B,E][F,CE]3/2[F,E]3/2 |[M:3/8] [B,,F,]3 |] %20

